icons/line/link.svg

<svg width="24" height="24" fill="none" xmlns="http://www.w3.org/2000/svg"><path fill="#fff" d="M0 0h24v24H0z"/><path d="M8 12h8m-1-4h2c1.333 0 4 .8 4 4s-2.667 4-4 4h-2m-6 0H7c-1.333 0-4-.8-4-4s2.667-4 4-4h2" stroke="currentColor" stroke-width="2" stroke-linecap="round" stroke-linejoin="round"/></svg>

<svg width="24" height="24" viewBox="0 0 24 24" fill="none" xmlns="http://www.w3.org/2000/svg">
<rect width="24" height="24" fill="white"/>
<path d="M8 12H16M15 8H17C18.3333 8 21 8.8 21 12C21 15.2 18.3333 16 17 16H15M9 16H7C5.66667 16 3 15.2 3 12C3 8.8 5.66667 8 7 8H9" stroke="currentColor" stroke-width="2" stroke-linecap="round" stroke-linejoin="round"/>
</svg>
